!!!!SEGMENT: pl-kk--kk-i-7--036-001_pekiel-bartlomiej-missa-kyrie.krn
!!!id: 16xx:830
!!!COM: Pękiel, Bartłomiej
!!!OTL: Missa – Kyrie
!!!PDT: 1669
!!!SMS-siglum: PL-Kk
!!!SMS-shelfmark: Kk.I.7
!!!NIFC-rismID: 300258113
!!!URL-scan: http://repozytorium.nifc.pl/skany/pl-kk-nut--i-7
!!!ONB-nifc: UWAGA: C (skan 0027-0032, s.49-58), A (0114-0118, s.48-57), T(0188-0193, s.41-50), B(0280-0285, s.49-57). Części Mszy: 1. Kyrie, 2. Et in terra, 3. Patrem,. 4. Sanctus, 5. Benedictus, 6. Agnus Dei
!!!SMS-variant:
!!!SMS-altvar:
**kern	**text	**kern	**text	**kern	**text	**kern	**text
*part4	*part4	*part3	*part3	*part2	*part2	*part1	*part1
*staff4	*staff4	*staff3	*staff3	*staff2	*staff2	*staff1	*staff1
*I"BASSVS.	*	*I"TENOR.	*	*I"ALTVS.	*	*I"CANTVS.	*
*I'B	*	*I'T	*	*I'A	*	*I'S	*
*clefF4	*	*clefC1	*	*clefC4	*	*clefC3	*
*k[]	*	*k[]	*	*k[]	*	*k[]	*
*M2/1	*	*M2/1	*	*M2/1	*	*M2/1	*
*met(C|)	*	*met(C|)	*	*met(C|)	*	*met(C|)	*
=1-	=1-	=1-	=1-	=1-	=1-	=1-	=1-
*all\right	*	*all\right	*	*all\right	*	*all\right	*
*	*	*	*	*	*	*2\right	*
!	!	!LO:TX:t=P:problem:kreska pseudotaktowa	!	!LO:TX:a:t=Miſsa adinſtao praeneſtini a 4 aurſ. Sigſ Barts Pekel S.R.M.C.M.	!	!	!
00r	.	1r	.	00r	.	2.d\	Ky-
.	.	.	.	.	.	4d\	-ri-
*	*	*2\right	*	*	*	*	*
!	!	!	!	!	!	!LO:TX:t=P:problem:kreska pseudotaktowa	!
.	.	2.a\	Ky-	.	.	1A	-e
.	.	4a\	-ri-	.	.	.	.
=2-	=2-	=2-	=2-	=2-	=2-	=2-	=2-
!	!	!LO:TX:t=P:problem:kreska pseudotaktowa	!	!	!	!	!
.	.	1d	-e	.	.	2r	.
.	.	.	.	.	.	1d	Ky-
.	.	2re	.	.	.	.	.
.	.	1a\	ky-	.	.	2c/	-ri-
=3-	=3-	=3-	=3-	=3-	=3-	=3-	=3-
!LO:TX:t=P:problem:kreska pseudotaktowa	!	!	!	!	!	!	!
00r	.	.	.	00r	.	2f\	-e
!	!	!LO:TX:t=P:problem:kreska pseudotaktowa	!	!	!	!	!
.	.	2g/	-ri-	.	.	1e	.
.	.	2cc\	-e	.	.	.	.
!	!	!	!	!	!	!LO:TX:t=P:problem:kreska pseudotaktowa	!
.	.	2.b\	.	.	.	2d\	e-
=4-	=4-	=4-	=4-	=4-	=4-	=4-	=4-
*	*	*	*	*	*	*lig	*
.	.	.	.	.	.	1c	.
.	.	4a\	.	.	.	.	.
.	.	1a	.	.	.	.	.
*	*	*	*	*	*	*col	*
.	.	.	.	.	.	2.B/	.
!	!	!LO:TX:t=P:problem:kreska pseudotaktowa	!	!	!	!	!
.	.	2g/	e-	.	.	.	.
*	*	*	*	*	*	*Xlig	*
!	!	!	!	!	!	!LO:TX:t=P:problem:kreska pseudotaktowa	!
.	.	.	.	.	.	4c/	.
*	*	*	*	*	*	*Xcol	*
=5-	=5-	=5-	=5-	=5-	=5-	=5-	=5-
*	*	*lig	*	*	*	*	*
!	!	!	!	!LO:TX:t=P:problem:kreska pseudotaktowa	!	!	!
2.D/	Ky-	1f	-lei-	1r	.	4d\	.
.	.	.	.	.	.	4A/	.
.	.	.	.	.	.	1d	-lei-
4D/	-ri-	.	.	.	.	.	.
!LO:TX:t=P:problem:kreska pseudotaktowa	!	!	!	!	!	!	!
1AA	-e	1e	.	2.A/	Ky-	.	.
!	!	!	!	!	!	!LO:TX:t=P:problem:# above	!
.	.	.	.	.	.	2c#X/	.
.	.	.	.	4A/	-ri-	.	.
*	*	*Xlig	*	*	*	*	*
=6-	=6-	=6-	=6-	=6-	=6-	=6-	=6-
!	!	!LO:N:acc=-	!	!	!	!LO:TX:t=+	!
!	!	!LO:TX:t=P:problem:kreska pseudotaktowa	!	!LO:TX:t=P:problem:kreska pseudotaktowa	!	!LO:TX:t=P:problem:kreska pseudotaktowa	!
2r	.	1fn	-ſon	1D	-e	1d	-ſon
1D	ky-	.	.	.	.	.	.
.	.	00r	.	2r	.	00r	.
!LO:TX:t=P:problem:kreska pseudotaktowa	!	!	!	!	!	!	!
2C/	-ri-	.	.	1A/	ky-	.	.
=7-	=7-	=7-	=7-	=7-	=7-	=7-	=7-
*2\right	*	*	*	*	*	*	*
2F\	-e	.	.	.	.	.	.
!	!	!	!	!LO:TX:t=P:problem:kreska pseudotaktowa	!	!	!
1E	.	.	.	2G/	-ri-	.	.
*	*	*	*	*2\right	*	*	*
.	.	.	.	2c\	-e	.	.
!LO:TX:t=P:problem:kreska pseudotaktowa	!	!	!	!	!	!	!
2D/	.	.	.	2.B\	.	.	.
=8-	=8-	=8-	=8-	=8-	=8-	=8-	=8-
*lig	*	*	*	*	*	*	*
1C	.	.	.	.	.	.	.
.	.	.	.	4A/	.	.	.
.	.	.	.	1A	.	.	.
*col	*	*	*	*	*	*	*
!	!	!LO:TX:t=P:problem:kreska pseudotaktowa	!	!	!	!	!
2.BB/	.	0r	.	.	.	0r	.
!	!	!	!	!LO:TX:t=P:problem:kreska pseudotaktowa	!	!	!
.	.	.	.	2G/	e-	.	.
*Xlig	*	*	*	*	*	*	*
!LO:TX:t=P:problem:kreska pseudotaktowa	!	!	!	!	!	!	!
4C/	.	.	.	.	.	.	.
*Xcol	*	*	*	*	*	*	*
=9-	=9-	=9-	=9-	=9-	=9-	=9-	=9-
*	*	*	*	*lig	*	*	*
!	!	!	!	!	!	!LO:TX:t=P:problem:kreska pseudotaktowa	!
4D/	.	.	.	1F	-lei-	.	.
4AA/	e-	.	.	.	.	.	.
1D	-lei-	.	.	.	.	.	.
.	.	1.a	ky-	1E	.	1r	.
!LO:TX:t=P:problem:kreska pseudotaktowa	!	!	!	!	!	!	!
!LO:TX:b:t=P:problem:# below	!	!	!	!	!	!	!
2C#X/	.	.	.	.	.	.	.
*	*	*	*	*Xlig	*	*	*
=10-	=10-	=10-	=10-	=10-	=10-	=10-	=10-
!	!	!	!	!LO:TX:t=P:problem:kreska pseudotaktowa	!	!	!
1D	-ſon	.	.	1D	-ſon	2r	.
.	.	2f/	-ri-	.	.	1d	ky-
00r	.	2b-X\	-e	00r	.	.	.
!	!	!	!	!	!	!LO:TX:t=P:problem:kreska pseudotaktowa	!
.	.	1a\	.	.	.	2cny/	-ri-
=11-	=11-	=11-	=11-	=11-	=11-	=11-	=11-
.	.	.	.	.	.	2f\	-e
!	!	!LO:TX:t=P:problem:kreska pseudotaktowa	!	!	!	!	!
.	.	2g/	.	.	.	1e	.
.	.	2.f/	.	.	.	.	.
!	!	!	!	!	!	!LO:TX:t=P:problem:kreska pseudotaktowa	!
.	.	.	.	.	.	2d\	.
!	!	!LO:TX:t=P:problem:kreska pseudotaktowa	!	!	!	!	!
.	.	4g/	.	.	.	.	.
=12-	=12-	=12-	=12-	=12-	=12-	=12-	=12-
*	*	*	*	*	*	*lig	*
.	.	4a\	e-	.	.	1c	.
.	.	4e/	.	.	.	.	.
.	.	1a	.	.	.	.	.
00r	.	.	.	2.d\	ky-	1B	.
!	!	!LO:TX:t=P:problem:kreska pseudotaktowa	!	!	!	!	!
!	!	!LO:SIC:v:t=custos a	!	!	!	!	!
.	.	2g#X/	-ley-	.	.	.	.
.	.	.	.	4d\	-ri-	.	.
*	*	*	*	*	*	*Xlig	*
!	!	!LO:LB:g=original	!	!	!	!	!
=13-	=13-	=13-	=13-	=13-	=13-	=13-	=13-
!	!	!	!	!LO:TX:t=P:problem:kreska pseudotaktowa	!	!	!
.	.	2a\	-ſon	1A	-e	4c/	.
!	!	!	!	!	!	!LO:TX:t=P:problem:kreska pseudotaktowa	!
.	.	.	.	.	.	4d\	.
*	*	*lig	*	*	*	*	*
.	.	1cc	ky-	.	.	4e\	.
.	.	.	.	.	.	4c/	.
.	.	.	.	2rd	.	1.f	.
!	!	!LO:TX:t=P:problem:♭ above	!	!	!	!	!
.	.	1b-X\	.	1d\	ky-	.	.
*	*	*Xlig	*	*	*	*	*
=14-	=14-	=14-	=14-	=14-	=14-	=14-	=14-
.	.	.	.	.	.	.	.
!	!	!LO:TX:t=P:problem:kreska pseudotaktowa	!	!LO:TX:t=P:problem:kreska pseudotaktowa	!	!LO:TX:t=P:problem:kreska pseudotaktowa	!
.	.	2a\	.	2c\	-ri-	2e\	.
!LO:TX:t=P:problem:kreska pseudotaktowa	!	!	!	!	!	!	!
0r	.	2b-X\	-ri-	2f\	-e	2d\	.
!	!	!LO:TX:t=P:problem:kreska pseudotaktowa	!	!	!	!	!
.	.	2a\	-e	2.e\	.	2.c/	e-
=15-	=15-	=15-	=15-	=15-	=15-	=15-	=15-
.	.	1gny	.	.	.	.	.
.	.	.	.	4d\	.	4B-X/	.
.	.	.	.	1d	.	4B-/	-lei-
.	.	.	.	.	.	8A/L	.
!	!	!	!	!	!	!LO:SIC:v:t=custos A	!
!	!	!	!	!	!	!LO:TX:t=P:problem:kreska pseudotaktowa	!
.	.	.	.	.	.	8G/J	.
!	!	!	!	!	!	!LO:LB:g=original	!
2.A\	ky-	2f/	e-	.	.	1.A	-ſon
!	!	!LO:TX:t=P:problem:kreska pseudotaktowa	!	!LO:TX:t=P:problem:kreska pseudotaktowa	!	!	!
.	.	2e/	.	2c\	e-	.	.
4A\	-ri-	.	.	.	.	.	.
=16-	=16-	=16-	=16-	=16-	=16-	=16-	=16-
!LO:TX:t=P:problem:kreska pseudotaktowa	!	!	!	!	!	!	!
1D	-e	1f	-lei-	2d\	-le-	.	.
.	.	.	.	2d\	-i-	1d	ky-
!	!	!LO:TX:t=P:problem:kreska pseudotaktowa	!	!LO:TX:t=P:problem:kreska pseudotaktowa	!	!	!
!	!	!	!	!LO:SIC:v:t=custos A	!	!	!
2r	.	1e	-ſon	1A	-ſon	.	.
!	!	!	!	!	!	!LO:TX:t=P:problem:kreska pseudotaktowa	!
1A\	ky-	.	.	.	.	2c/	-ri-
!	!	!	!	!LO:LB:g=original	!	!	!
=17-	=17-	=17-	=17-	=17-	=17-	=17-	=17-
.	.	1ra	.	00r	.	2f\	-e
!LO:TX:t=P:problem:kreska pseudotaktowa	!	!	!	!	!	!	!
2G\	-ri-	.	.	.	.	1e	.
2c\	-e	2a\	ky-	.	.	.	.
!	!	!LO:TX:t=P:problem:kreska pseudotaktowa	!	!	!	!LO:TX:t=P:problem:kreska pseudotaktowa	!
2.Bn\	.	2g/	-ri-	.	.	2d\	.
=18-	=18-	=18-	=18-	=18-	=18-	=18-	=18-
*	*	*lig	*	*	*	*	*
.	.	1cc	-e	.	.	2e\	.
4A\	.	.	.	.	.	.	.
1A	.	.	.	.	.	4c/	.
.	.	.	.	.	.	4d\	.
!	!	!LO:TX:t=P:problem:kreska pseudotaktowa	!	!	!	!	!
.	.	1bny	.	.	.	4e\	.
.	.	.	.	.	.	4Bny/	.
!LO:TX:t=P:problem:kreska pseudotaktowa	!	!	!	!	!	!	!
2G\	.	.	.	.	.	1e\	.
*	*	*Xlig	*	*	*	*	*
=19-	=19-	=19-	=19-	=19-	=19-	=19-	=19-
*lig	*	*	*	*	*	*	*
1F	.	2.a\	e-	2r	.	.	.
!	!	!	!	!	!	!LO:TX:t=P:problem:kreska pseudotaktowa	!
.	.	.	.	1A	ky-	2d\	.
.	.	4b\	.	.	.	.	.
!LO:SIC:v:t=custos AA	!	!	!	!	!	!	!
1E	.	4cc\	.	.	.	2c/	.
.	.	4dd\	.	.	.	.	.
!	!	!	!	!LO:TX:t=P:problem:kreska pseudotaktowa	!	!	!
.	.	1ee\	-lei-	2G/	-ri-	2B/	.
*Xlig	*	*	*	*	*	*	*
!LO:LB:g=original	!	!	!	!	!	!	!
=20-	=20-	=20-	=20-	=20-	=20-	=20-	=20-
2AA/	.	.	.	2c\	-e	2A/	.
!LO:TX:t=P:problem:kreska pseudotaktowa	!	!LO:TX:t=P:problem:kreska pseudotaktowa	!	!	!	!LO:TX:t=P:problem:kreska pseudotaktowa	!
2GG#X/	.	2e/	-ſon	2.B\	.	2B/	.
4AA/	e-	00r	.	.	.	1c	lei-
4BB/	.	.	.	4A/	.	.	.
4Cny/	.	.	.	1A\	.	.	.
!LO:TX:t=P:problem:kreska pseudotaktowa	!	!	!	!	!	!	!
4D/	ley-	.	.	.	.	.	.
=21-	=21-	=21-	=21-	=21-	=21-	=21-	=21-
!	!	!	!	!	!	!LO:TX:t=P:problem:cezura na 2. linii	!
1E	-ſon	.	.	.	.	2B,/	-ſon
!	!	!	!	!LO:TX:t=P:problem:kreska pseudotaktowa	!	!	!
.	.	.	.	2G/	.	1e	ky-
*	*ij	*	*	*lig	*	*	*
2.A\	ky-	.	.	1F	.	.	.
.	.	.	.	.	.	2.d\	-ri-
!LO:TX:t=P:problem:kreska pseudotaktowa	!	!	!	!	!	!	!
4A\	-ri-	.	.	.	.	.	.
=22-	=22-	=22-	=22-	=22-	=22-	=22-	=22-
2D/	-e	.	.	1B-X	.	.	.
.	.	.	.	.	.	4c/	.
1G	e-	.	.	.	.	4B-X/	-e
.	.	.	.	.	.	8A/L	.
!	!	!	!	!	!	!LO:TX:t=P:problem:kreska pseudotaktowa	!
.	.	.	.	.	.	8G/J	.
*	*	*	*	*Xlig	*	*	*
.	.	2.a\	ky-	1.A	e-	1.d	e-
!LO:TX:t=P:problem:kreska pseudotaktowa	!	!	!	!	!	!	!
2F#X\	.	.	.	.	.	.	.
.	.	4a\	-ri-	.	.	.	.
=23-	=23-	=23-	=23-	=23-	=23-	=23-	=23-
!	!	!LO:TX:t=P:problem:kreska pseudotaktowa	!	!	!	!	!
2B-X\	.	1d	-e	.	.	.	.
2B-\	-ley-	.	.	1G	.	2d\	-lei-
!LO:TX:t=P:problem:kreska pseudotaktowa	!	!	!	!	!	!LO:TX:t=P:problem:kreska pseudotaktowa	!
1A	-ſon	2r	.	.	.	1d	-ſon
*	*Xij	*	*	*	*	*	*
!	!	!	!	!LO:TX:t=P:problem:kreska pseudotaktowa	!	!	!
.	.	1a\	ky-	2F#X/	.	.	.
=24-	=24-	=24-	=24-	=24-	=24-	=24-	=24-
00r	.	.	.	1.G	.	2.B-X/	ky-
!	!	!LO:TX:t=P:problem:kreska pseudotaktowav	!	!	!	!	!
.	.	2g/	-ri-	.	.	.	.
.	.	.	.	.	.	4c/	.
.	.	2b-X\	-e	.	.	4d\	-ri-
.	.	.	.	.	.	4e\	.
.	.	2.a\	.	4A/	.	1f\	-e-
!	!	!	!	!LO:TX:t=P:problem:kreska pseudotaktowa	!	!	!
.	.	.	.	4Bny\	.	.	.
=25-	=25-	=25-	=25-	=25-	=25-	=25-	=25-
.	.	.	.	2.c\	.	.	.
.	.	4g/	.	.	.	.	.
.	.	1g	.	.	.	4e\	.
!	!	!	!	!	!	!LO:TX:t=P:problem:kreska pseudotaktowa	!
.	.	.	.	4B\	.	4d\	.
!	!	!	!	!LO:TX:t=P:problem:kreska pseudotaktowa	!	!	!
.	.	.	.	0A	-lei-	4c/	.
.	.	.	.	.	.	4A/	.
!	!	!LO:TX:t=P:problem:kreska pseudotaktowa	!	!	!	!	!
.	.	2f/	e-	.	.	1d\	.
=26-	=26-	=26-	=26-	=26-	=26-	=26-	=26-
!LO:TX:t=P:problem:kreska pseudotaktowa	!	!LO:SIC:v:t=custos f	!	!	!	!	!
1r	.	1e	.	.	.	.	.
!	!	!	!	!	!	!LO:TX:a:t=P:problem:# below	!
.	.	.	.	.	.	2c#X/	.
!	!	!LO:LB:g=original	!	!	!	!LO:TX:t=4	!
2.D/	ky-	2.f/	.	2D/	-ſon	00d\	-lei-
*	*	*	*	*	*ij	*	*
.	.	.	.	1d\	e-	.	.
4D/	-ri-	8g/L	.	.	.	.	.
!	!	!LO:TX:t=P:problem:kreska pseudotaktowa	!	!	!	!	!
.	.	8a/J	.	.	.	.	.
=27-	=27-	=27-	=27-	=27-	=27-	=27-	=27-
!LO:TX:t=P:problem:kreska pseudotaktowa	!	!	!	!	!	!	!
1GGny	-e	2b-X\	.	.	.	.	.
!	!	!	!	!LO:TX:t=P:problem:kreska pseudotaktowa	!	!	!
.	.	2.a\	.	2c\	.	.	.
*	*	*	*	*lig	*	*	*
2r	.	.	.	1B-X	.	.	.
.	.	8g/L	.	.	.	.	.
.	.	8f/J	.	.	.	.	.
*	*ij	*	*	*	*	*	*
!	!	!LO:TX:t=P:problem:kreska pseudotaktowa	!	!	!	!	!
1G\	ky-	2g/	.	.	.	.	.
=28-	=28-	=28-	=28-	=28-	=28-	=28-	=28-
.	.	1a	-lei-	1A	.	.	.
*	*	*	*	*Xlig	*	*	*
!LO:TX:t=P:problem:kreska pseudotaktowa	!	!	!	!	!	!	!
2F#X\	-ri-	.	.	.	.	.	.
!	!	!	!	!	!	!LO:TX:t=P:problem:kreska pseudotaktowa	!
2B-X\	-e	2d/	-ſon	2G/	.	[1dl;<	ſon
*	*Xij	*	*	*	*	*	*
!	!	!LO:TX:t=P:problem:kreska pseudotaktowa	!	!LO:TX:t=P:problem:kreska pseudotaktowa	!	!	!
2.A\	.	2dd\	.	2F#X/	.	.	.
=29-	=29-	=29-	=29-	=29-	=29-	=29-	=29-
.	.	2b-X\	ky-	1G	-lei-	0d_	.
4G\	e-	.	.	.	.	.	.
1G	-ley-	2g/	-ri-	.	.	.	.
.	.	2b-X\	-e	2D/	-ſon	.	.
!LO:TX:t=P:problem:kreska pseudotaktowa	!	!	!	!	!	!	!
2F#X\	.	1a\	.	4d\	e-	.	.
!	!	!	!	!LO:TX:t=P:problem:kreska pseudotaktowa	!	!	!
.	.	.	.	4c\	.	.	.
=30-	=30-	=30-	=30-	=30-	=30-	=30-	=30-
0G	-ſon	.	.	2.B-X\	.	0d_	.
.	.	4g/	e-	.	.	.	.
!	!	!LO:TX:t=P:problem:kreska pseudotaktowa	!	!LO:TX:t=P:problem:kreska pseudotaktowa	!	!	!
.	.	4f/	.	4A/	.	.	.
.	.	1g	-lei-	1B-	-lei-	.	.
=31-	=31-	=31-	=31-	=31-	=31-	=31-	=31-
!	!	!LO:N:vis=0.	!	!LO:TX:t=P:problem:kreska pseudotaktowa	!	!	!
0Dl;	.	0f#Xl;	-ſon	0Al;	-ſon	0d]	.
*	*	*	*	*	*Xij	*	*
!	!	!LO:LB:g=original	!	!LO:LB:g=original	!	!LO:LB:g=original	!
=32||	=32||	=32||	=32||	=32||	=32||	=32||	=32||
*M2/1	*	*M2/1	*	*M2/1	*	*M2/1	*
*met(C|)	*	*met(C|)	*	*met(C|)	*	*met(C|)	*
!LO:TX:t=Chriſte \nTacet	!	!LO:TX:t=à 3.	!	!LO:TX:t=à 3.	!	!	!
!	!	!LO:TX:t=P:problem:kreska pseudotaktowa	!	!	!	!	!
0ryy	.	0r	.	00r	.	1d	Chri-
.	.	.	.	.	.	2A/	-ſte
.	.	.	.	.	.	1d\	e-
=33-	=33-	=33-	=33-	=33-	=33-	=33-	=33-
0ryy	.	1a	CHri-	.	.	.	.
!	!	!	!	!	!	!LO:TX:t=P:problem:kreska pseudotaktowa	!
.	.	.	.	.	.	2c/	.
.	.	2d/	-ſte	.	.	2.f\	.
.	.	1a\	.	.	.	.	.
.	.	.	.	.	.	4e\	.
=34-	=34-	=34-	=34-	=34-	=34-	=34-	=34-
0ryy	.	.	.	0r	.	4d\	.
.	.	.	.	.	.	4c/	.
!	!	!LO:TX:t=P:problem:kreska pseudotaktowa	!	!	!	!LO:TX:t=P:problem:kreska pseudotaktowa	!
.	.	2g#X/	e-	.	.	2B/	.
.	.	2.cc\	.	.	.	2A/	.
.	.	.	.	.	.	2.f\	.
.	.	4b\	.	.	.	.	.
=35-	=35-	=35-	=35-	=35-	=35-	=35-	=35-
!	!	!	!	!LO:TX:t=P:problem:kreska pseudotaktowa	!	!	!
0ryy	.	4a\	.	1r	.	.	.
.	.	4gny/	.	.	.	4e\	.
.	.	4f/	.	.	.	1d	.
.	.	8e/L	.	.	.	.	.
!	!	!LO:TX:t=P:problem:kreska pseudotaktowa	!	!	!	!	!
.	.	8d/J	.	.	.	.	.
.	.	2e/	.	1A	CHri-	.	.
!	!	!	!	!	!	!LO:TX:t=P:problem:# below	!
!	!	!	!	!	!	!LO:TX:t=P:problem:kreska pseudotaktowa	!
.	.	2.a\	.	.	.	2c#X/	.
=36-	=36-	=36-	=36-	=36-	=36-	=36-	=36-
0ryy	.	.	.	2D/	-ſte	2f\	.
.	.	4b\	.	.	.	.	.
.	.	4cc\	.	1A	e-	4e\	.
!	!	!LO:TX:t=P:problem:kreska pseudotaktowa	!	!	!	!	!
.	.	4b\	.	.	.	4d\	.
.	.	4cc\	.	.	.	4e\	.
.	.	4a\	.	.	.	4cny/	.
!	!	!	!	!LO:TX:b:t=P:problem:# below	!	!	!
!	!	!	!	!LO:TX:t=P:problem:kreska pseudotaktowa	!	!LO:TX:t=P:problem:kreska pseudotaktowa	!
.	.	4b\	.	2G#X/	.	2d\	.
!	!	!LO:TX:t=P:problem:kreska pseudotaktowa	!	!	!	!	!
.	.	4a\	.	.	.	.	.
=37-	=37-	=37-	=37-	=37-	=37-	=37-	=37-
0ryy	.	4g/	.	2.c\	.	4e\	.
.	.	4f/	.	.	.	4f\	.
!	!	!LO:TX:t=P:problem:kreska pseudotaktowa	!	!	!	!	!
*	*	*	*	*	*	*lig	*
.	.	2e/	.	.	.	1g	.
.	.	.	.	4B\	.	.	.
*	*	*lig	*	*	*	*	*
.	.	1a	.	4A/	.	.	.
.	.	.	.	4Gny/	.	.	.
.	.	.	.	4A/	.	1f\	.
!	!	!	!	!LO:TX:t=P:problem:kreska pseudotaktowa	!	!	!
.	.	.	.	4F/	.	.	.
*	*	*	*	*	*	*Xlig	*
=38-	=38-	=38-	=38-	=38-	=38-	=38-	=38-
*	*	*	*	*lig	*	*	*
0ryy	.	1g	.	1c	.	.	.
*	*	*	*	*	*	*lig	*
.	.	.	.	.	.	1e	.
*	*	*Xlig	*	*	*	*	*
*	*	*lig	*	*	*	*	*
.	.	1f	[[-lei-	1d	.	.	.
.	.	.	.	.	.	1d\	.
*	*	*	*	*Xlig	*	*Xlig	*
=39-	=39-	=39-	=39-	=39-	=39-	=39-	=39-
!	!	!LO:TX:t=P:problem:kreska pseudotaktowa	!	!LO:TX:t=P:problem:kreska pseudotaktowa	!	!	!
0ryy	.	1e	.	1A	.	.	.
!	!	!	!	!	!	!LO:TX:t=P:problem:kreska pseudotaktowa	!
.	.	.	.	.	.	2c#X/	-e-
*	*	*Xlig	*	*	*	*	*
!	!	!	!	!	!	!LO:TX:t=+	!
.	.	1d	-ſon]]	2B\	.	1d	-lei-
.	.	.	.	1d\	.	.	.
=40-	=40-	=40-	=40-	=40-	=40-	=40-	=40-
!	!	!LO:TX:t=P:problem:kreska pseudotaktowa	!	!	!	!LO:TX:t=P:problem:cezura na 2. linii	!
0ryy	.	1a	-lei-	.	.	2e,\	-ſon
!	!	!	!	!LO:TX:t=P:problem:kreska pseudotaktowa	!	!	!
.	.	.	.	2c\	.	1a	Chri-
!	!	!LO:TX:t=P:problem:cezura na 1. linii	!	!	!	!	!
*	*	*	*	*lig	*	*	*
.	.	2d,/	-ſon	1B-X	.	.	.
!	!	!	!	!	!	!LO:TX:t=P:problem:kreska pseudotaktowa	!
.	.	1dd\	Chri-	.	.	2g\	.
=41-	=41-	=41-	=41-	=41-	=41-	=41-	=41-
!	!	!	!	!LO:TX:t=P:problem:kreska pseudotaktowa	!	!	!
0ryy	.	.	.	1A	.	2f\	-ſte
.	.	2cc\	-ſte	.	.	4e\	e-
.	.	.	.	.	.	4f\	.
*	*	*	*	*Xlig	*	*	*
!	!	!LO:TX:t=P:problem:kreska pseudotaktowa	!	!	!	!LO:TX:t=P:problem:kreska pseudotaktowa	!
!	!	!LO:SIC:v:t=custos b	!	!	!	!	!
.	.	(1b-X	e-	1G	-lei-	4g\	.
!	!	!	!	!	!	!LO:TX:t=à 3.	!
!	!	!	!	!	!	!LO:SIC:v:t=custos g	!
.	.	.	.	.	.	4d\	.
!	!	!	!	!	!	!LO:LB:g=original	!
.	.	.	.	.	.	1g\	.
=42-	=42-	=42-	=42-	=42-	=42-	=42-	=42-
!	!	!	!	!LO:TX:t=P:problem:cezura na 1. linii	!	!	!
0ryy	.	2b-X\	.	2D,/	-ſon	.	.
!	!	!LO:LB:g=original	!	!	!	!	!
.	.	4a\	.	1d	Chri-	4f\	.
!	!	!LO:TX:t=P:problem:kreska pseudotaktowa	!	!	!	!LO:TX:t=P:problem:kreska pseudotaktowa	!
.	.	4g/	.	.	.	4g\	.
.	.	4f/	.	.	.	1a	.
.	.	8e/L	.	.	.	.	.
.	.	8d/J	.	.	.	.	.
!	!	!	!	!LO:TX:t=P:problem:kreska pseudotaktowa	!	!	!
.	.	1e/	.	2c\	.	.	.
=43-	=43-	=43-	=43-	=43-	=43-	=43-	=43-
0ryy	.	.	.	1.f	-ſte	1.d	.
.	.	4d/	.	.	.	.	.
!	!	!LO:TX:t=P:problem:kreska pseudotaktowa	!	!	!	!	!
.	.	4e/	.	.	.	.	.
.	.	4f/	.	.	.	.	.
.	.	4g/	.	.	.	.	.
!	!	!LO:TX:t=P:problem:kreska pseudotaktowa	!	!LO:TX:t=P:problem:kreska pseudotaktowa	!	!LO:TX:t=P:problem:kreska pseudotaktowa	!
.	.	(<2a\	.	2e\	.	2cny/	.
=44-	=44-	=44-	=44-	=44-	=44-	=44-	=44-
0ryy	.	2a\)	.	4d\	e-	4f\	.
.	.	.	.	4c\	.	4e\	.
.	.	1a	-e-	4c\	.	4e\	.
.	.	.	.	8Bny\L	.	8d\L	.
!	!	!	!	!LO:TX:t=P:problem:kreska pseudotaktowa	!	!LO:TX:t=P:problem:kreska pseudotaktowa	!
.	.	.	.	8A\J	.	8c\J	.
*	*	*	*	*	*	*lig	*
.	.	.	.	1B	.	1d	.
!	!	!LO:TX:t=P:problem:kreska pseudotaktowa	!	!	!	!	!
.	.	2g/	.	.	.	.	.
=45-	=45-	=45-	=45-	=45-	=45-	=45-	=45-
*	*	*	*	*	*	*col	*
0ryy	.	2cc\	.	2A/	.	2.e\	.
!	!	!	!	!LO:TX:b:t=P:problem:# below	!	!	!
.	.	2.bny\	.	2G#X/	.	.	.
*	*	*	*	*	*	*Xlig	*
!	!	!	!	!	!	!LO:TX:t=P:problem:kreska pseudotaktowa	!
.	.	.	.	.	.	4d\	.
*	*	*	*	*	*	*Xcol	*
!	!	!	!	!LO:TX:t=P:problem:kreska pseudotaktowa	!	!	!
!	!	!	!	!LO:SIC:v:t=custos E	!	!	!
.	.	.	.	1A	.	2.c/	.
.	.	4a\	.	.	.	.	.
.	.	1a\	.	.	.	.	.
.	.	.	.	.	.	8B/L	.
.	.	.	.	.	.	8A/J	.
!	!	!	!	!LO:LB:g=original	!	!	!
=46-	=46-	=46-	=46-	=46-	=46-	=46-	=46-
*	*	*	*	*lig	*	*	*
0ryy	.	.	.	1E	.	2B/	-lei-
!	!	!LO:TX:b:t=P:problem:# below	!	!	!	!	!
!	!	!LO:TX:t=P:problem:kreska pseudotaktowa	!	!	!	!LO:TX:t=P:problem:kreska pseudotaktowa	!
.	.	2g#X/	-lei-	.	.	2e\	.
*	*	*	*	*col	*	*	*
!	!	!	!	!	!	!LO:TX:t=P:problem:cezura na 1. linii	!
.	.	1a	.	2.F/	.	2A,/	-ſon
.	.	.	.	.	.	1d\	Chri-
*	*	*	*	*Xlig	*	*	*
.	.	.	.	8E/L	.	.	.
!	!	!	!	!LO:TX:t=P:problem:kreska pseudotaktowa	!	!	!
.	.	.	.	8D/J	.	.	.
*	*	*	*	*Xcol	*	*	*
=47-	=47-	=47-	=47-	=47-	=47-	=47-	=47-
!	!	!LO:TX:t=P:problem:kreska pseudotaktowa	!	!	!	!	!
0ryy	.	1e	-ſon	1.A	-e-	.	.
.	.	.	.	.	.	2c/	.
.	.	0r	.	.	.	2f\	-ſte
!	!	!	!	!LO:TX:t=P:problem:kreska pseudotaktowa	!	!	!
.	.	.	.	2Gny/	.	1e\	.
=48-	=48-	=48-	=48-	=48-	=48-	=48-	=48-
0ryy	.	.	.	2c\	.	.	.
!	!	!	!	!LO:TX:t=P:problem:kreska pseudotaktowa	!	!	!
.	.	.	.	2B\	.	4d\	e-
!	!	!	!	!	!	!LO:TX:t=P:problem:kreska pseudotaktowa	!
.	.	.	.	.	.	4e\	.
!	!	!LO:TX:t=P:problem:kreska pseudotaktowa	!	!	!	!	!
.	.	1r	.	4A\	.	2.f\	.
.	.	.	.	8B\L	.	.	.
.	.	.	.	8c\J	.	.	.
.	.	.	.	1d\	.	.	.
.	.	.	.	.	.	8e\L	.
.	.	.	.	.	.	8d\J	.
=49-	=49-	=49-	=49-	=49-	=49-	=49-	=49-
0ryy	.	1cc	Chri-	.	.	2.e\	.
!	!	!	!	!LO:TX:t=P:problem:kreska pseudotaktowa	!	!	!
.	.	.	.	2c\	.	.	.
!	!	!	!	!	!	!LO:TX:t=P:problem:kreska pseudotaktowa	!
.	.	.	.	.	.	4f\	.
.	.	2d/	-ſte	1B-X	-lei-	4g\	.
.	.	.	.	.	.	4f\	.
.	.	1gny\	.	.	.	4e\	.
!	!	!	!	!	!	!LO:TX:t=P:problem:kreska pseudotaktowa	!
.	.	.	.	.	.	4d\	.
=50-	=50-	=50-	=50-	=50-	=50-	=50-	=50-
!	!	!	!	!LO:TX:t=P:problem:kreska pseudotaktowa	!	!	!
0ryy	.	.	.	1A	-ſon	4c/	.
.	.	.	.	.	.	4B/	.
!	!	!LO:TX:t=P:problem:kreska pseudotaktowa	!	!	!	!LO:TX:t=P:problem:kreska pseudotaktowa	!
!	!	!LO:TX:b:t=P:problem:# below	!	!	!	!	!
.	.	2f#X/	e-	.	.	2c/	.
.	.	2b-X\	.	2G/	Chri-	1d	-lei-
!	!	!	!	!LO:TX:b:t=P:problem:# below	!	!	!
!	!	!	!	!LO:TX:t=P:problem:kreska pseudotaktowa	!	!	!
.	.	1a\	.	2F#X/	.	.	.
=51-	=51-	=51-	=51-	=51-	=51-	=51-	=51-
*	*	*	*	*lig	*	*	*
0ryy	.	.	.	1B-X	-ſte	2G/	-ſon
*	*	*	*	*	*	*	*ij
!	!	!LO:TX:t=P:problem:kreska pseudotaktowa	!	!	!	!	!
.	.	2g/	.	.	.	1d	e-
.	.	2fny/	.	1A	e-	.	.
!	!	!	!	!	!	!LO:TX:t=P:problem:kreska pseudotaktowa	!
!	!	!	!	!	!	!LO:TX:t=P:problem:# below	!
.	.	2.e/	.	.	.	2c#X/	-lei-
*	*	*	*	*Xlig	*	*	*
=52-	=52-	=52-	=52-	=52-	=52-	=52-	=52-
!	!	!	!	!LO:TX:t=P:problem:kreska pseudotaktowa	!	!	!
0ryy	.	.	.	0A	-lei-	2.f\	.
.	.	4d/	.	.	.	.	.
.	.	1d	-lei-	.	.	.	.
.	.	.	.	.	.	8e\L	.
.	.	.	.	.	.	8d\J	.
.	.	.	.	.	.	1e	.
!	!	!LO:TX:t=P:problem:kreska pseudotaktowa	!	!	!	!	!
.	.	2c#X/	.	.	.	.	.
=53-	=53-	=53-	=53-	=53-	=53-	=53-	=53-
!	!	!	!	!LO:TX:t=P:problem:kreska pseudotaktowa	!	!	!
0ryy	.	0dl	-ſon	0Dl;	-ſon.	0dl;	-ſon
*	*	*	*	*	*	*	*Xij
!LO:PB:g=original	!	!LO:LB:g=original	!	!LO:LB:g=original	!	!LO:LB:g=original	!
=54||	=54||	=54||	=54||	=54||	=54||	=54||	=54||
*M2/1	*	*M2/1	*	*M2/1	*	*M2/1	*
*met(C|)	*	*met(C|)	*	*met(C|)	*	*met(C|)	*
!	!	!	!	!LO:TX:t=à 4.	!	!	!
!LO:TX:a:t=de F. Ecce adſum. Vltimum.	!	!	!	!LO:TX:t=P:problem:kreska pseudotaktowa	!	!	!
2.D/	Ky-	00r	.	1r	.	00r	.
!LO:TX:t=P:problem:kreska pseudotaktowa	!	!	!	!	!	!	!
4D/	-ri-	.	.	.	.	.	.
2AA/	-e	.	.	2.A/	Ky-	.	.
1D\	e-	.	.	.	.	.	.
!	!	!	!	!LO:TX:t=P:problem:kreska pseudotaktowa	!	!	!
.	.	.	.	4A/	-ri-	.	.
=55-	=55-	=55-	=55-	=55-	=55-	=55-	=55-
.	.	.	.	2D/	-e	.	.
!LO:TX:t=P:problem:kreska pseudotaktowa	!	!	!	!	!	!	!
!LO:TX:b:t=P:problem:# below	!	!	!	!	!	!	!
2C#X/	.	.	.	1A	e-	.	.
2F\	.	.	.	.	.	.	.
!	!	!	!	!LO:TX:t=P:problem:kreska pseudotaktowa	!	!	!
1E\	.	.	.	2G/	.	.	.
=56-	=56-	=56-	=56-	=56-	=56-	=56-	=56-
!	!	!	!	!	!	!LO:TX:t=P:problem:kreska pseudotaktowa	!
.	.	00r	.	2c\	.	0r	.
2.D/	.	.	.	2.B\	.	.	.
4Cny/	.	.	.	4A/	.	.	.
*	*	*	*	*lig	*	*	*
4C/	.	.	.	1A\	.	.	.
8BB/L	.	.	.	.	.	.	.
!LO:TX:t=P:problem:kreska pseudotaktowa	!	!	!	!	!	!	!
8AA/J	.	.	.	.	.	.	.
=57-	=57-	=57-	=57-	=57-	=57-	=57-	=57-
2.BB/	.	.	.	.	.	2.d\	Ky-
*	*	*	*	*col	*	*	*
.	.	.	.	2.G/	.	.	.
4C/	.	.	.	.	.	4d\	-ri-
1D	-lei-	.	.	.	.	2A/	-e
*	*	*	*	*Xlig	*	*	*
.	.	.	.	4F/	.	.	.
*	*	*	*	*Xcol	*	*	*
.	.	.	.	4F/	.	1d\	e-
.	.	.	.	8E/L	.	.	.
!	!	!	!	!LO:TX:t=P:problem:kreska pseudotaktowa	!	!	!
.	.	.	.	8D/J	.	.	.
=58-	=58-	=58-	=58-	=58-	=58-	=58-	=58-
!LO:TX:t=P:problem:kreska pseudotaktowa	!	!LO:TX:t=P:problem:kreska pseudotaktowa	!	!	!	!	!
1AA	-ſon	0r	.	1E	-lei-	.	.
!	!	!	!	!	!	!LO:TX:t=P:problem:kreska pseudotaktowa	!
.	.	.	.	.	.	2c/	.
*	*	*	*	*	*	*lig	*
!	!	!	!	!LO:TX:t=P:problem:cezura pod 1. linią	!	!	!
00r	.	.	.	2D,/	-ſon	1f	.
.	.	.	.	1d\	ky-	.	.
=59-	=59-	=59-	=59-	=59-	=59-	=59-	=59-
.	.	2.a\	Ky-	.	.	1e	.
!	!	!	!	!LO:TX:t=P:problem:kreska pseudotaktowa	!	!	!
.	.	.	.	2c\	ri-	.	.
!	!	!LO:TX:t=P:problem:kreska pseudotaktowa	!	!	!	!	!
.	.	4a\	-ri-	.	.	.	.
*	*	*	*	*	*	*Xlig	*
.	.	2d/	-e	2B-X\	-e	2.f\	.
.	.	1a\	.	4F/	e-	.	.
!	!	!	!	!LO:TX:t=P:problem:kreska pseudotaktowa	!	!	!
.	.	.	.	4G/	.	8e\L	.
!	!	!	!	!	!	!LO:TX:t=P:problem:kreska pseudotaktowa	!
.	.	.	.	.	.	8d\J	.
=60-	=60-	=60-	=60-	=60-	=60-	=60-	=60-
.	.	.	.	4A/	.	4c/	.
.	.	.	.	4Bny\	.	4d\	.
!	!	!LO:TX:t=P:problem:kreska pseudotaktowa	!	!	!	!	!
.	.	2g/	e-	4c\	.	2.e\	.
!	!	!	!	!LO:TX:t=P:problem:kreska pseudotaktowa	!	!	!
.	.	.	.	4B\	.	.	.
0r	.	2cc\	.	2A/	.	.	.
!	!	!	!	!	!	!LO:TX:t=P:problem:# above	!
.	.	.	.	.	.	4f#X\	.
!	!	!	!	!LO:TX:t=P:problem:kreska pseudotaktowa	!	!LO:TX:t=P:problem:kreska pseudotaktowa:między nutą a kropką	!
.	.	2.b\	.	2G/	.	2.g\	.
=61-	=61-	=61-	=61-	=61-	=61-	=61-	=61-
.	.	.	.	2.d\	.	.	.
.	.	4a\	.	.	.	4fny\	.
.	.	1a	.	.	.	4f\	.
!	!	!	!	!	!	!LO:TX:t=P:problem:kreska pseudotaktowa	!
.	.	.	.	4c\	.	4e\	.
!LO:TX:t=P:problem:kreska pseudotaktowa	!	!	!	!	!	!	!
1r	.	.	.	4B\	.	4d\	.
.	.	.	.	4A/	.	4c/	.
!	!	!LO:TX:b:t=P:problem:# below	!	!	!	!	!
!	!	!LO:TX:t=P:problem:kreska pseudotaktowa	!	!LO:TX:t=P:problem:kreska pseudotaktowa	!	!	!
.	.	2g#X/	-lei-	2B\	.	4d\	.
!	!	!	!	!	!	!LO:TX:t=P:problem:kreska pseudotaktowa	!
.	.	.	.	.	.	4e\	.
=62-	=62-	=62-	=62-	=62-	=62-	=62-	=62-
!	!	!LO:TX:t=P:problem:cezura na 2. linii	!	!	!	!	!
!	!	!LO:TX:t=P:problem:kreska pseudotaktowa	!	!	!	!	!
2.D/	ky-	1a,	-ſon	2A/	.	1f	.
.	.	.	.	2d\	.	.	.
4D/	-ri-	.	.	.	.	.	.
2AA/	-e	1a	ky-	4c\	.	2e\	.
.	.	.	.	4B\	.	.	.
*	*	*	*	*	*	*lig	*
1D\	e-	.	.	4A/	.	1f\	.
!	!	!	!	!LO:TX:t=P:problem:kreska pseudotaktowa	!	!	!
.	.	.	.	4G/	.	.	.
=63-	=63-	=63-	=63-	=63-	=63-	=63-	=63-
.	.	2d/	-ri-	4F/	.	.	.
!	!	!	!	!LO:SIC:v:t=custos A	!	!	!
.	.	.	.	4G/	.	.	.
!	!	!	!	!LO:LB:g=original	!	!	!
!LO:TX:t=P:problem:kreska pseudotaktowa	!	!	!	!LO:TX:t=P:problem:kreska pseudotaktowa	!	!	!
!LO:TX:b:t=P:problem:# below	!	!	!	!	!	!	!
2C#X/	.	2.a\	-e	2A/	.	1e	.
*lig	*	*	*	*	*	*	*
1F	.	.	.	2D/	.	.	.
.	.	4d/	.	.	.	.	.
*	*	*	*	*	*	*Xlig	*
!	!	!LO:TX:t=P:problem:kreska pseudotaktowa	!	!LO:TX:t=+	!	!LO:TX:t=P:problem:kreska pseudotaktowa	!
.	.	2dd\	.	1A\	.	2d\	.
=64-	=64-	=64-	=64-	=64-	=64-	=64-	=64-
*col	*	*	*	*	*	*	*
2.E\	.	2cc\	.	.	.	0e	-lei-
*Xlig	*	*lig	*	*	*	*	*
!	!	!	!	!LO:TX:t=P:problem:kreska pseudotaktowa	!	!	!
.	.	1b	.	2G/	.	.	.
!LO:TX:t=P:problem:kreska pseudotaktowa	!	!	!	!	!	!	!
!LO:SIC:v:t=custos C	!	!	!	!	!	!	!
4D/	.	.	.	.	.	.	.
*Xcol	*	*	*	*lig	*	*	*
!LO:LB:g=original	!	!	!	!	!	!	!
4Cny/	.	.	.	1c	.	.	.
4BB/	.	.	.	.	.	.	.
4C/	.	1a\	.	.	.	.	.
!LO:TX:t=P:problem:kreska pseudotaktowa	!	!	!	!	!	!	!
4AA/	.	.	.	.	.	.	.
*	*	*Xlig	*	*	*	*	*
=65-	=65-	=65-	=65-	=65-	=65-	=65-	=65-
!	!	!	!	!LO:TX:t=P:problem:kreska pseudotaktowa	!	!LO:TX:t=P:problem:kreska pseudotaktowa	!
4BB/	.	.	.	1B	.	0d	-ſon
4GG/	.	.	.	.	.	.	.
4BB/	.	1gny	.	.	.	.	.
!LO:TX:t=P:problem:kreska pseudotaktowa	!	!	!	!	!	!	!
4C/	.	.	.	.	.	.	.
*	*	*	*	*Xlig	*	*	*
4D/	.	.	.	2A/	.	.	.
4E\	.	.	.	.	.	.	.
!	!	!LO:TX:t=P:problem:kreska pseudotaktowa	!	!	!	!	!
*	*	*	*	*lig	*	*	*
4F\	.	2f/	e-	1d\	.	.	.
4G\	.	.	.	.	.	.	.
=66-	=66-	=66-	=66-	=66-	=66-	=66-	=66-
4A\	.	1e	-lei-	.	.	0r	.
4E\	.	.	.	.	.	.	.
!LO:TX:t=P:problem:kreska pseudotaktowa	!	!	!	!	!	!	!
2A\	.	.	.	1c	.	.	.
!	!	!LO:TX:t=P:problem:cezura na 2. linii	!	!	!	!	!
!	!	!LO:TX:b:t=P:problem:# above	!	!	!	!	!
2D/	.	2f#,/	-ſon	.	.	.	.
*	*	*	*	*Xlig	*	*	*
!	!	!LO:TX:t=P:problem:kreska pseudotaktowa	!	!LO:TX:t=P:problem:kreska pseudotaktowa	!	!	!
1G\	.	2g/	ky-	2B\	.	.	.
=67-	=67-	=67-	=67-	=67-	=67-	=67-	=67-
!	!	!	!	!LO:TX:t=P:problem:# above	!	!	!
.	.	2.a\	-ri-	2c#X\	-e-	2rf	.
!LO:TX:t=P:problem:kreska pseudotaktowa	!	!	!	!	!	!	!
2F\	.	.	.	2d\	.	1a	ky-
!	!	!LO:TX:t=P:problem:kreska pseudotaktowa	!	!	!	!	!
.	.	4b\	.	.	.	.	.
!	!	!	!	!LO:TX:t=P:problem:kreska pseudotaktowa	!	!	!
1E	.	4cc\	-e-	1e	-ley-	.	.
.	.	8b\L	.	.	.	.	.
.	.	8a\J	.	.	.	.	.
!	!	!	!	!	!	!LO:TX:t=P:problem:kreska pseudotaktowa	!
.	.	4b\	.	.	.	2g\	-ri-
!	!	!LO:TX:t=P:problem:kreska pseudotaktowa	!	!	!	!	!
.	.	4cc\	.	.	.	.	.
=68-	=68-	=68-	=68-	=68-	=68-	=68-	=68-
!	!	!	!	!LO:TX:t=P:problem:cezura na 1. linii	!	!	!
!	!	!	!	!LO:TX:t=P:problem:kreska pseudotaktowa	!	!	!
(2D/	-lei-	4dd\	.	1A,	-ſon	1f	-e-
.	.	4cc\	.	.	.	.	.
!LO:TX:t=P:problem:kreska pseudotaktowa	!	!	!	!	!	!	!
2D/)	.	4a\	.	.	.	.	.
!	!	!LO:TX:t=P:problem:kreska pseudotaktowa	!	!	!	!	!
!	!	!LO:SIC:v:t=custos cc	!	!	!	!	!
.	.	4b\	.	.	.	.	.
!	!	!LO:PB:g=original	!	!	!	!LO:TX:t=à 4	!
!	!	!	!	!	!	!LO:TX:t=P:problem:kreska pseudotaktowa	!
!	!	!	!	!	!	!LO:SIC:v:t=custos e	!
2AA/	-ſon	1cc	-lei-	1A	ky-	1e	-lei-
1A\	ky-	.	.	.	.	.	.
!	!	!	!	!	!	!LO:LB:g=original	!
=69-	=69-	=69-	=69-	=69-	=69-	=69-	=69-
!	!	!	!	!	!	!LO:TX:t=P:problem:cezura na 2. linii	!
!	!	!LO:TX:t=P:problem:kreska pseudotaktowa	!	!	!	!LO:TX:t=+	!
.	.	1b	-ſon	1E	-ri-	1e,	-ſon
!LO:TX:t=P:problem:kreska pseudotaktowa	!	!	!	!	!	!	!
2G\	-ri-	.	.	.	.	.	.
!	!	!LO:TX:t=P:problem:kreska pseudotaktowa	!	!	!	!	!
2c\	-e	0r	.	2A/	-e	1.e	ky-
!	!	!	!	!LO:TX:b:t=P:problem:# below	!	!	!
2B\	.	.	.	2G#X/	lei-	.	.
=70-	=70-	=70-	=70-	=70-	=70-	=70-	=70-
!	!	!	!	!LO:N:acc=-	!	!	!
2.A\	.	.	.	1cn	-ſon	.	.
!	!	!	!	!	!	!LO:TX:t=P:problem:kreska pseudotaktowa	!
.	.	.	.	.	.	2e\	ri-
!LO:TX:t=P:problem:kreska pseudotaktowa	!	!	!	!	!	!	!
4G\	.	.	.	.	.	.	.
!	!	!	!	!LO:TX:t=+	!	!	!
2.F\	.	2.a\	ky-	0r	.	2A/	-e
.	.	.	.	.	.	1d\	.
4G\	.	4a\	-ri-	.	.	.	.
=71-	=71-	=71-	=71-	=71-	=71-	=71-	=71-
*lig	*	*	*	*	*	*	*
1A	.	2e/	-e	.	.	.	.
!	!	!	!	!	!	!LO:TX:t=P:problem:kreska pseudotaktowa	!
.	.	1a	.	.	.	2c/	.
1E	.	.	.	1e	ky-	2.B/	.
!	!	!LO:TX:t=P:problem:kreska pseudotaktowa	!	!	!	!	!
.	.	2g/	.	.	.	.	.
.	.	.	.	.	.	4c/	.
*Xlig	*	*	*	*	*	*	*
=72-	=72-	=72-	=72-	=72-	=72-	=72-	=72-
2F\	.	2.fny/	e-	2A/	-ri-	4d\	.
.	.	.	.	.	.	4e\	.
4D/	.	.	.	1d	-e	1f	.
!LO:TX:t=P:problem:kreska pseudotaktowa	!	!	!	!	!	!	!
4E\	.	4g/	-lei-	.	.	.	.
!	!	!LO:TX:t=P:problem:kreska pseudotaktowa	!	!	!	!	!
4F\	.	1a	-ſon	.	.	.	.
!LO:SIC:v:t=custos A	!	!	!	!	!	!	!
4G\	.	.	.	.	.	.	.
!LO:LB:g=original	!	!	!	!	!	!	!
!LO:TX:t=P:problem:kreska pseudotaktowa	!	!	!	!LO:TX:t=P:problem:kreska pseudotaktowa	!	!LO:TX:t=P:problem:kreska pseudotaktowa	!
2A\	.	.	.	2c\	.	2e\	.
=73-	=73-	=73-	=73-	=73-	=73-	=73-	=73-
2F\	.	0r	.	2f\	.	2a\	e-
2G\	.	.	.	2.e\	.	2.g\	.
*lig	*	*	*	*	*	*	*
1B-X	.	.	.	.	.	.	.
.	.	.	.	4d\	.	4f\	.
.	.	.	.	1d\	.	4e\	.
!	!	!	!	!	!	!LO:TX:t=P:problem:kreska pseudotaktowa	!
.	.	.	.	.	.	4d\	.
=74-	=74-	=74-	=74-	=74-	=74-	=74-	=74-
*col	*	*	*	*	*	*	*
2.A\	.	1a	ky-	.	.	1e	-ley-
!	!	!	!	!LO:TX:t=P:problem:kreska pseudotaktowa	!	!	!
!	!	!	!	!LO:TX:t=P:problem:# above	!	!	!
.	.	.	.	2c#X\	e-	.	.
*Xlig	*	*	*	*	*	*	*
!LO:TX:t=P:problem:kreska pseudotaktowa	!	!	!	!	!	!	!
4G\	.	.	.	.	.	.	.
*Xcol	*	*	*	*	*	*	*
!	!	!	!	!	!	!LO:TX:t=P:problem:kreska pseudotaktowa	!
!	!	!LO:TX:t=P:problem:kreska pseudotaktowa	!	!	!	!LO:TX:t=+	!
!	!	!	!	!	!	!LO:TX:t=P:problem:cezura na 2. linii	!
2F#X\	e-	1d	-ri-	4d\	.	0d,	-ſon
.	.	.	.	4cny\	.	.	.
1G\	.	.	.	4B-X\	.	.	.
.	.	.	.	8A/L	.	.	.
!	!	!	!	!LO:TX:t=P:problem:kreska pseudotaktowa	!	!	!
.	.	.	.	8Gny/J	.	.	.
=75-	=75-	=75-	=75-	=75-	=75-	=75-	=75-
.	.	1.a	-e	2.A/	.	.	.
!LO:TX:t=P:problem:kreska pseudotaktowa	!	!	!	!	!	!	!
!LO:N:acc=-	!	!	!	!	!	!	!
2Fn\	-lei-	.	.	.	.	.	.
!	!	!	!	!LO:N:acc=#	!	!	!
!	!	!	!	!LO:TX:t=P:problem:# above	!	!	!
.	.	.	.	4Bn\	.	.	.
!LO:TX:t=P:problem:kreska pseudotaktowa	!	!	!	!	!	!	!
!LO:TX:a:t=+	!	!	!	!	!	!	!
1E	.	.	.	2c\	.	1.e	ky-
!	!	!	!	!LO:N:acc=#	!	!	!
!	!	!LO:TX:t=P:problem:kreska pseudotaktowa	!	!LO:TX:t=P:problem:# above	!	!	!
.	.	2g/	e-	2Bn\	-ley-	.	.
=76-	=76-	=76-	=76-	=76-	=76-	=76-	=76-
!	!	!	!	!LO:TX:t=P:problem:kreska pseudotaktowa	!	!	!
!	!	!	!	!LO:SIC:v:t=custos A	!	!	!
2AA/	-ſon	4cc\	.	0A	-ſon	.	.
.	.	4b\	.	.	.	.	.
1D	ky-	4a\	.	.	.	2f\	-ri-
!	!	!LO:TX:t=P:problem:kreska pseudotaktowa	!	!	!	!	!
.	.	4g/	.	.	.	.	.
.	.	2f/	.	.	.	2d\	-e
!LO:TX:t=P:problem:kreska pseudotaktowa	!	!	!	!	!	!LO:TX:t=P:problem:kreska pseudotaktowa	!
!LO:TX:b:t=P:problem:# below	!	!	!	!	!	!	!
2C#X/	-ri-	1e/	.	.	.	2e\	.
!	!	!	!	!LO:PB:g=original	!	!	!
=77-	=77-	=77-	=77-	=77-	=77-	=77-	=77-
!	!	!	!	!LO:TX:t=P:problem:kreska pseudotaktowa	!	!	!
2.F\	-e	.	.	1rA	.	1A	.
.	.	4d/	.	.	.	.	.
!LO:TX:t=P:problem:kreska pseudotaktowa	!	!LO:TX:t=P:problem:kreska pseudotaktowa	!	!	!	!	!
4E\	.	4e/	.	.	.	.	.
2D/	.	4f/	.	2.A/	ky-	2d\	.
.	.	4g/	.	.	.	.	.
!LO:TX:t=P:problem:kreska pseudotaktowa	!	!	!	!	!	!LO:TX:t=P:problem:kreska pseudotaktowa	!
2Cny/	.	1a\	.	.	.	2e\	.
!	!	!	!	!LO:TX:t=P:problem:kreska pseudotaktowa	!	!	!
.	.	.	.	4A/	-ri-	.	.
=78-	=78-	=78-	=78-	=78-	=78-	=78-	=78-
2.BB-X/	.	.	.	2D/	-e	1d	.
.	.	4g/	.	1G	.	.	.
!LO:TX:t=P:problem:kreska pseudotaktowa	!	!LO:TX:t=P:problem:kreska pseudotaktowa	!	!	!	!	!
4AA/	e-	4a\	.	.	.	.	.
2GG/	.	2b-X\	.	.	.	00d	ley-
!LO:TX:t=P:problem:kreska pseudotaktowa	!	!	!	!LO:TX:t=P:problem:kreska pseudotaktowa	!	!	!
2D/	-lei-	1a\	.	2F/	.	.	.
=79-	=79-	=79-	=79-	=79-	=79-	=79-	=79-
*	*	*	*	*lig	*	*	*
2GG/	-ſon	.	.	1B-X	e-	.	.
!	!	!LO:TX:t=P:problem:kreska pseudotaktowa	!	!	!	!	!
1G	ky-	2g/	.	.	.	.	.
!	!	!	!	!LO:TX:t=P:problem:kreska pseudotaktowa	!	!	!
.	.	2a\	-lei-	1A	.	.	.
!LO:TX:t=P:problem:kreska pseudotaktowa	!	!LO:SIC:v:t=custos dd	!	!	!	!	!
2F#X\	ri-	1d/	-ſon	.	.	.	.
*	*	*	*	*Xlig	*	*	*
=80-	=80-	=80-	=80-	=80-	=80-	=80-	=80-
2B-X\	-e	.	.	2G/	.	.	.
!	!	!LO:LB:g=original	!	!	!	!	!
!LO:N:vis=1.	!	!LO:TX:t=P:problem:kreska pseudotaktowa:między nutą a kropką	!	!	!	!	!
1A	e-	2.dd\	ky-	2F#X/	.	.	.
.	.	.	.	0G	-ley-	00dl;<	-ſon
.	.	4cc\	-ri-	.	.	.	.
4G\	-lei-	4b-X\	e	.	.	.	.
4Fny\	.	4a\	e-	.	.	.	.
=81-	=81-	=81-	=81-	=81-	=81-	=81-	=81-
1G	.	1b-X	-lei-	.	.	.	.
0Dl	-ſon	0al;<	-ſon	0F#Xl;	-ſon	.	.
==	==	==	==	==	==	==	==
*-	*-	*-	*-	*-	*-	*-	*-
!!!system-decoration: [s1,s2,s3,s4]
!!!RDF**kern: < = below
!!!RDF**kern: l = terminal long
!!!ENC: Kamil Watkowski
!!!END: 2021-02-27
!!!ENC: Marta Lawrence
!!!END: 2021-03-11
